icons/lsp-portal.svg

<svg xmlns="http://www.w3.org/2000/svg" viewBox="0 0 512 512" style="height: 512px; width: 512px;"><g class="" transform="translate(0,0)" style=""><path d="m223.688 25.72 21.218 166.78h30.75l21.22-166.78h-73.188zm19.468 184.093v34.25h34.25v-34.25h-34.25zm17.156 79.968c-1.442 0-2.884.04-4.312.064-1.226.02-2.44.057-3.656.094l-1.063.03c-1.3.045-2.587.093-3.874.157-1.203.06-2.403.11-3.594.188-.217.012-.438.017-.656.03-39.48 2.43-74.968 12.954-101.22 25.938-15 7.42-26.97 15.677-34.78 23.25-7.808 7.576-10.78 14.353-10.78 17.314 0 2.96 2.228 7.307 9.686 12.594 7.46 5.286 19.353 10.675 34.407 15.187 30.106 9.025 72.746 14.844 119.843 14.844 47.096 0 89.767-5.82 119.875-14.845 15.053-4.512 26.947-9.9 34.406-15.188 7.46-5.286 9.687-9.633 9.687-12.593 0-2.96-2.972-9.738-10.78-17.313-7.808-7.573-19.78-15.83-34.78-23.25-26.25-12.983-61.764-23.507-101.25-25.936-.22-.015-.437-.017-.658-.03-1.19-.078-2.39-.13-3.593-.19-1.288-.063-2.576-.11-3.876-.155-.136-.006-.27-.028-.406-.033-.23-.007-.458.007-.688 0-1.195-.035-2.388-.074-3.594-.093-1.438-.024-2.89-.063-4.344-.063zm0 18.69c26.39 0 50.255 4.41 66.688 11.03 8.216 3.31 14.52 7.202 18.313 10.813 3.79 3.61 4.906 6.395 4.906 8.78 0 2.386-1.116 5.172-4.908 8.782-1.58 1.506-3.62 3.053-6.03 4.594-4.953-15.806-38.422-28.033-79-28.033-40.555 0-73.986 12.21-78.97 28-2.396-1.533-4.426-3.064-6-4.562-3.79-3.61-4.906-6.396-4.906-8.78 0-2.387 1.115-5.172 4.906-8.783 3.792-3.61 10.097-7.502 18.313-10.812 16.433-6.62 40.297-11.03 66.688-11.03zM77.75 358.25c-22.095 13.71-34.938 30.062-34.938 47.625 0 48.377 97.367 87.594 217.47 87.594 120.1 0 217.468-39.218 217.468-87.595 0-17.54-12.807-33.864-34.844-47.563-.61 10.722-7.856 19.54-17.5 26.375-10.08 7.144-23.57 12.956-39.875 17.844-32.61 9.777-76.607 15.626-125.217 15.626s-92.607-5.85-125.22-15.625c-16.305-4.887-29.764-10.7-39.843-17.842-9.662-6.848-16.915-15.69-17.5-26.438z" fill="#fff" fill-opacity="1"></path></g></svg>

<?xml version="1.0" encoding="UTF-8" standalone="no"?>
<!DOCTYPE svg PUBLIC "-//W3C//DTD SVG 1.1//EN" "http://www.w3.org/Graphics/SVG/1.1/DTD/svg11.dtd">
<svg width="100%" height="100%" viewBox="0 0 512 512" version="1.1" xmlns="http://www.w3.org/2000/svg" xmlns:xlink="http://www.w3.org/1999/xlink" xml:space="preserve" xmlns:serif="http://www.serif.com/" style="fill-rule:evenodd;clip-rule:evenodd;stroke-linejoin:round;stroke-miterlimit:2;">
    <g transform="matrix(1.16529,0,0,1.16529,-47.3024,-200.356)">
        <path d="M260.312,289.781C258.87,289.781 257.428,289.821 256,289.845C254.774,289.865 253.56,289.902 252.344,289.939L251.281,289.969C249.981,290.014 248.694,290.062 247.407,290.126C246.204,290.186 245.004,290.236 243.813,290.314C243.596,290.326 243.375,290.331 243.157,290.344C203.677,292.774 168.189,303.298 141.937,316.282C126.937,323.702 114.967,331.959 107.157,339.532C99.349,347.108 96.377,353.885 96.377,356.846C96.377,359.806 98.605,364.153 106.063,369.44C113.523,374.726 125.416,380.115 140.47,384.627C170.576,393.652 213.216,399.471 260.313,399.471C307.409,399.471 350.08,393.651 380.188,384.626C395.241,380.114 407.135,374.726 414.594,369.438C422.054,364.152 424.281,359.805 424.281,356.845C424.281,353.885 421.309,347.107 413.501,339.532C405.693,331.959 393.721,323.702 378.721,316.282C352.471,303.299 316.957,292.775 277.471,290.346C277.251,290.331 277.034,290.329 276.813,290.316C275.623,290.238 274.423,290.186 273.22,290.126C271.932,290.063 270.644,290.016 269.344,289.971C269.208,289.965 269.074,289.943 268.938,289.938C268.708,289.931 268.48,289.945 268.25,289.938C267.055,289.903 265.862,289.864 264.656,289.845C263.218,289.821 261.766,289.782 260.312,289.782L260.312,289.781ZM260.312,308.471C286.702,308.471 310.567,312.881 327,319.501C335.216,322.811 341.52,326.703 345.313,330.314C349.103,333.924 350.219,336.709 350.219,339.094C350.219,341.48 349.103,344.266 345.311,347.876C343.731,349.382 341.691,350.929 339.281,352.47C334.328,336.664 300.859,324.437 260.281,324.437C219.726,324.437 186.295,336.647 181.311,352.437C178.915,350.904 176.885,349.373 175.311,347.875C171.521,344.265 170.405,341.479 170.405,339.095C170.405,336.708 171.52,333.923 175.311,330.312C179.103,326.702 185.408,322.81 193.624,319.5C210.057,312.88 233.921,308.47 260.312,308.47L260.312,308.471ZM77.75,358.25C55.655,371.96 42.812,388.312 42.812,405.875C42.812,454.252 140.179,493.469 260.282,493.469C380.382,493.469 477.75,454.251 477.75,405.874C477.75,388.334 464.943,372.01 442.906,358.311C442.296,369.033 435.05,377.851 425.406,384.686C415.326,391.83 401.836,397.642 385.531,402.53C352.921,412.307 308.924,418.156 260.314,418.156C211.704,418.156 167.707,412.306 135.094,402.531C118.789,397.644 105.33,391.831 95.251,384.689C85.589,377.841 78.336,368.999 77.751,358.251L77.75,358.25Z" style="fill:white;fill-rule:nonzero;"/>
    </g>
</svg>
